gdscript/src/main/resources/icons/godot_editor/Checkerboard.svg

<svg height="64" viewBox="0 0 64 64" width="64" xmlns="http://www.w3.org/2000/svg"><g fill="#fff" stroke-linecap="round" stroke-linejoin="round" transform="translate(0 -988.36)"><path d="m0 988.36h64v64h-64z" fill-opacity=".19608" stroke-width="2"/><path d="m0 0v16h16v-16zm16 16v16h16v-16zm16 0h16v-16h-16zm16 0v16h16v-16zm0 16h-16v16h16zm0 16v16h16v-16zm-16 0h-16v16h16zm-16 0v-16h-16v16z" fill-opacity=".39216" stroke-width="8" transform="translate(0 988.36)"/></g></svg>

<svg height="64" viewBox="0 0 64 64" width="64" xmlns="http://www.w3.org/2000/svg"><g fill="#fff"><path d="M0 0h64v64H0z" fill-opacity=".2"/><path d="M0 0v16h16V0zm16 16v16h16V16zm16 0h16V0H32zm16 0v16h16V16zm0 16H32v16h16zm0 16v16h16V48zm-16 0H16v16h16zm-16 0V32H0v16z" fill-opacity=".4"/></g></svg>
